X: 130935
T: Munster Gimlet
S: "The Piping of Patsy Tuohey" (Mitchell/Small)
Z: B.Black
R: slip jig
M: 9/8
L: 1/8
K: G
d|cAG GDG G2d|cAG GFG Add|cAG GDG G2d|B/c/de fed cAd|
cAG GDG G2d|cAG GFG Add|cAG GDG G2d|B/c/de fed cAG||
def gaf g3|def gbg afd|cde fge f2d|cde fed cAG|
def gaf g3|def gbg afd|cde fge f2d|cde fed cAc||
B2G AGF G2A|B3 GBd cAc|B2G AGF G2D|B/c/de fed cAc :|
